client/src/assets/images/icon-shuttle.svg

<svg fill="none" height="90" viewBox="0 0 90 90" width="90" xmlns="http://www.w3.org/2000/svg"><path clip-rule="evenodd" d="m63.7498 18.751h-52.5c-4.12504 0-7.50004 3.3375-7.50004 7.5v33.75h7.50004c0 6.1875 5.025 11.25 11.25 11.25s11.25-5.0625 11.25-11.25h20.625c0 6.1875 5.025 11.25 11.25 11.25s11.25-5.0625 11.25-11.25h9.375v-18.75zm-52.4999 22.5006v-15h15v15zm11.25 24.375c-3.1125 0-5.625-2.5125-5.625-5.625s2.5125-5.625 5.625-5.625 5.625 2.5125 5.625 5.625-2.5125 5.625-5.625 5.625zm26.25-24.375h-15v-15h15zm16.8749 24.375c-3.1125 0-5.625-2.5125-5.625-5.625s2.5125-5.625 5.625-5.625 5.625 2.5125 5.625 5.625-2.5125 5.625-5.625 5.625zm-9.3749-24.375v-15h3.75l15 15z" fill="#06b9ff" fill-rule="evenodd"/></svg>

<svg width="90" height="90" viewBox="0 0 90 90" fill="none" xmlns="http://www.w3.org/2000/svg">
<path fill-rule="evenodd" clip-rule="evenodd" d="M63.7498 18.751H11.2498C7.12476 18.751 3.74976 22.0885 3.74976 26.251V60.001H11.2498C11.2498 66.1885 16.2748 71.251 22.4998 71.251C28.7248 71.251 33.7498 66.1885 33.7498 60.001H54.3748C54.3748 66.1885 59.3998 71.251 65.6248 71.251C71.8498 71.251 76.8748 66.1885 76.8748 60.001H86.2498V41.251L63.7498 18.751ZM11.2499 41.2516V26.2516H26.2499V41.2516H11.2499ZM22.4999 65.6266C19.3874 65.6266 16.8749 63.1141 16.8749 60.0016C16.8749 56.8891 19.3874 54.3766 22.4999 54.3766C25.6124 54.3766 28.1249 56.8891 28.1249 60.0016C28.1249 63.1141 25.6124 65.6266 22.4999 65.6266ZM48.7499 41.2516H33.7499V26.2516H48.7499V41.2516ZM65.6248 65.6266C62.5123 65.6266 59.9998 63.1141 59.9998 60.0016C59.9998 56.8891 62.5123 54.3766 65.6248 54.3766C68.7373 54.3766 71.2498 56.8891 71.2498 60.0016C71.2498 63.1141 68.7373 65.6266 65.6248 65.6266ZM56.2499 41.2516V26.2516H59.9999L74.9999 41.2516H56.2499Z" fill="#06B9FF"/>
</svg>
